!!!OTL-incipit: WENN ICH AUF WAPPUSHOF GEH
!!!ARE: Europa, Mitteleuropa, Deutschland, Franken
!!!SCT: Z0180
!!!YEM: Copyright 1995, estate of Helmut Schaffrath.
**kern	**text
*ICvox	*
*M3/8	*
*k[b-]	*
*F:	*
!LO:TX:a:t=Franken.	!
{8f	Wenn
16r	.
16a	ich
8a	auf
=1	=1
8e	Wap-
16r	.
16g	-pus-
8g	-hof
=2	=2
4f	geh,
8r}	.
=3	=3
{8a	ſetʒ
8cc	ich
16ffL	mein
16ccJ	.
=4	=4
8.cc	Hü-
16b-/	-terl
16g	in
16b-/	die
=5	=5
4f	Höh;
8r}	.
=6	=6
{8cc	wenn
16ccL	ich
16ffJ	.
8cc	e
=7	=7
8b-	Stück
16gL	wei-
16ggJ	.
8b-}	-ter
=8	=8
{8a	komm,
16f	dreh
16cc/	ich
8a	mich
=9	=9
16gL	gleich
16fJ	.
16gL	wied'r
16aJ	.
8g}	um,
=10	=10
{8f	ſeh
8a	ich
8a	mein
=11	=11
8ccL	Schaʒ-
8b-J	.
16b-L	-ʒerl
16ddJ	.
=12	=12
4.cc}	ſtehn,
=13	=13
{16f/L	wie
16a	.
16cc	.
16ffJ	.
8cc	roth
=14	=14
8.cc	Nä-
16b-/	-gerl
16gL	ſo
16b-J	.
=15	=15
4.a}	ſchön.
==	==
!!!AGN: Romanze
!!!ONB: ESAC (Essen Associative Code) Database: ZUCCAL
!!!AMT: simple triple
!!!AIN: vox
!!!EED: Helmut Schaffrath
!!!EEV: 1.0
!!!GTL: III. Soldaten-, Jaeger-, Schiffer-, Fuhrmanns- und Handwerks-Lieder.
!!!URL-scan: https://www.digitale-sammlungen.de/de/view/bsb11160571?page=337
!!!ENC: Anna Maria Matuszewska
!!!EEV: 2025/01/28
*-	*-
